X:1
T:Sweet and Sour Rag
C:Paul Rosen
S:Copyright 2005, Paul Rosen
M:4/4
L:1/8
Q:115
R:Rag
K:D
|:"D"fded BdAB|defa- a2aa|"A7"gecA BA-A2|gecA BA-A2|
"D"fded BdAB|defa- a2aa|"A7"gecA BABA|"D"d2dd d2dd:|
|:"D"DEFD EF-F2|EDEF-F4|"E7"EF^GE FG-G2|FEF^G-G4|
"A7"ABcA Bc-c2|BABc-c2BA|1"D"d2d2c2c2|BAB2A2A2:|2"D"d2d2 fdec|d4d4|
